templates/_fa/fa-linkedin-square.svg

<svg xmlns="http://www.w3.org/2000/svg" width="100%" height="100%" viewBox="0 0 1536 1792"><path fill="#333" d="M237 1414h231v-694h-231v694zM483 506q-1-52-36-86t-93-34-94.5 34-36.5 86q0 51 35.5 85.5t92.5 34.5h1q59 0 95-34.5t36-85.5zM1068 1414h231v-398q0-154-73-233t-193-79q-136 0-209 117h2v-101h-231q3 66 0 694h231v-388q0-38 7-56 15-35 45-59.5t74-24.5q116 0 116 157v371zM1536 416v960q0 119-84.5 203.5t-203.5 84.5h-960q-119 0-203.5-84.5t-84.5-203.5v-960q0-119 84.5-203.5t203.5-84.5h960q119 0 203.5 84.5t84.5 203.5z" /></svg>

<svg xmlns="http://www.w3.org/2000/svg" viewBox="0 0 1536 1792"><path fill="#333" d="M237 1414h231V720H237v694zm246-908q-1-52-36-86t-93-34-94.5 34-36.5 86q0 51 35.5 85.5T351 626h1q59 0 95-34.5t36-85.5zm585 908h231v-398q0-154-73-233t-193-79q-136 0-209 117h2V720H595q3 66 0 694h231v-388q0-38 7-56 15-35 45-59.5t74-24.5q116 0 116 157v371zm468-998v960q0 119-84.5 203.5T1248 1664H288q-119 0-203.5-84.5T0 1376V416q0-119 84.5-203.5T288 128h960q119 0 203.5 84.5T1536 416z"/></svg>
